X:1
T:Title
%%score { ( 1 4 ) | ( 2 3 ) }
L:1/8
M:6/8
K:Ab
V:1 treble nm="Grand Piano"
V:4 treble 
V:2 bass 
V:3 bass 
V:1
 z3 z2[Q:1/4=58] [CE] | [CA]2 [Ec] dBe | c2 [EA] .[FB]2 [A,DF] | [A,CE]2 [CEA] .[B,=DA]2 [A,DA] | %4
[M:5/8] [EB]-[EB]- [EB]3 |[M:1/8] [CE] |[M:3/4] [CA]2 [Ec]d Be | z2 z B z2 | EA c c2 B | %9
[M:5/8] [CA]-[CA]- [CA]3 |[M:1/8] [CE] |[M:3/4] z G B d2 G | A2 c e2 f | e2 [Ec]A B[=Dc] | %14
[M:5/8] [EB]-[EB]- [EB]3 |[M:1/8] [CE] |[M:3/4] [CA]2 [Ec]d Be | c2 [EA]B AF | EA c c2 B | %19
[M:5/8] [CA]-[CA]- [CA]3 |] %20
V:2
 z3 z2 [A,,A,] | [A,,A,]2 [A,,A,] [E,G,E]2 [E,G,E] | [A,E]2 [C,A,] z AD, | A,,2 A,, z GB,, | %4
[M:5/8] [E,G,]-[E,G,]- [E,G,]3 |[M:1/8] [A,,A,] |[M:3/4] [A,,A,]2 [A,,A,] [E,G,E]2 [E,G,E] | %7
 [A,E]2 [C,A,] [D,A,]2 [D,A,D] | [E,A,C]2 [E,A,E] [E,G,E]2 [E,G,D] | %9
[M:5/8] [A,,A,]-[A,,A,]- [A,,A,]3 |[M:1/8] [A,,A,] |[M:3/4] G,B, [E,G,E] [E,B,E]2 [E,B,D] | %12
 [A,C]2 [A,E] [A,CE]2 [A,DA] | [A,CA]2[K:bass] [A,,A,]B,,- [B,,G,][B,,A,] | %14
[M:5/8] [E,G,]-[E,G,]- [E,G,]3 |[M:1/8] [A,,A,] |[M:3/4] [A,,A,]2 [A,,A,] [E,G,E]2 [E,G,E] | %17
 [A,E]2 [C,A,] [D,A,]2 [D,A,D] | [E,A,C]2 [E,A,E] [E,G,E]2 [E,G,D] | %19
[M:5/8] [A,,A,]-[A,,A,]- [A,,A,]3 |] %20
V:3
 x6 | x6 | z3 .[D,A,]3 | z3 .B,,3 |[M:5/8] x5 |[M:1/8] x |[M:3/4] x6 | x6 | x6 |[M:5/8] x5 | %10
[M:1/8] x |[M:3/4] E,2 z2 z2 | x6 | z2[K:bass] z F, z2 |[M:5/8] x5 |[M:1/8] x |[M:3/4] x6 | x6 | %18
 x6 |[M:5/8] x5 |] %20
V:4
 x6 | x6 | x6 | x6 |[M:5/8] x5 |[M:1/8] x |[M:3/4] x6 | c2 [EA]F- [FA]F | x6 |[M:5/8] x5 | %10
[M:1/8] x |[M:3/4] E2 z2 z2 | x6 | z2 z .=D3 |[M:5/8] x5 |[M:1/8] x |[M:3/4] x6 | z2 z .F3 | x6 | %19
[M:5/8] x5 |] %20

